X:1
T:Seeking for Me
T:Seeking for Me
T:Emerson E. Hasty
T:A. N., 1878
T:Public Domain Courtesy of the Cyber Hymnal™
T:Public Domain Courtesy of the Cyber Hymnal™
C:Emerson E. Hasty
Z:Public Domain
Z:Courtesy of the Cyber Hymnal™
%%score ( 1 2 ) ( 3 4 )
L:1/8
Q:1/4=85
M:6/8
K:G
V:1 treble 
V:2 treble 
V:3 bass 
V:4 bass 
V:1
 [Gd]>[Gc][GB] [GB]>[FA]G | [EA]>[EG][CE] [CE]3 | [B,D]>[DG][DG] [DG]>[DA][GB] | [GB]>[FA]G [FA]3 | %4
w: 1.~Je- sus, my Sav- ior, to|Beth- le- hem came,|Laid in a man- ger to|sor- row and shame;|
w: 2.~Je- sus, my Sav- ior, on|Cal- va- ry’s tree,|Paid the great debt and my|soul He set free;|
w: 3.~Je- sus, my Sav- ior, in|mer- cy and love,|Came from the man- sions of|Hea- ven a- bove,|
w: 4.~Je- sus, my Sav- ior, the|same as of old,|While I did wan- der a-|far from the fold,|
w: 5.~Je- sus, my Sav- ior, will|come from on high,|Sweet is the pro- mise as|wea- ry years fly;|
 [Gd]>[Gc][GB] [GB]>[FA]G | [EA]>[EG][CE] [CE]3 | [B,D][DG][DB] [DA]2 [CA] | [B,G]6 | %8
w: Oh, it was won- der- ful,|blest be His name,|Seek- ing for me, for|me:|
w: Oh, it was won- der- ful—|how could it be?|Dy- ing for me, for|me!|
w: Ten- der- ly plead- ing with|sin- ners like me,|Plead- ing for me, for|me:|
w: Gent- ly and long He hath|pled with my soul,|Call- ing for me, for|me:|
w: Oh, I shall see Him des-|cend- ing the sky,|Com- ing for me, for|me:|
 D[DF][FA] ([Fd]2 c) | B3 [B,G]3 | D[DF][FA] ([Fc]2 e) | d3 [GB]3 | [Gd]>[Gc][GB] [GB]>[FA]G | %13
w: Seek- ing for me, *|seek- ing|for me, Seek- ing *|for me,|seek- ing for me, Oh, it|
w: Dy- ing for me, *|dy- ing|for me, Dy- ing *|for me,|dy- ing for me, Oh, it|
w: Plead- ing for me, *|plead- ing|for me, Plead- ing *|for me,|plead- ing for me, Ten- der-|
w: Call- ing for me, *|call- ing|for me, Call- ing *|for me,|call- ing for me, Gent- ly|
w: Com- ing for me, *|com- ing|for me, Com- ing *|for me,|com- ing for me, Oh, I|
 [EA]>[EG][CE] [CE]3 | [A,D][DF][FA] [Fc]2 [DF] | [DG]6 |] %16
w: was won- der- ful,|blest be His name, Seek-|ing|
w: was won- der- ful—|how could it be? Dy-|ing|
w: ly plead- ing for|si- nners like me, Plead-|ing|
w: and long He hath|pled with my soul, Call-|ing|
w: shall see Him des-|cend- ing the sky, Com-|ing|
V:2
 x6 | x6 | x6 | x6 | x6 | x6 | x6 | x6 | D x5 | GDD x3 | x6 | GGG x3 | x6 | x6 | x6 | x6 |] %16
V:3
 [G,B,]>[G,E][G,D] [G,D]>[G,C][G,B,] | [C,C]>[C,G,][C,G,] [C,G,]3 | %2
 G,>[G,B,][G,B,] [G,B,]>[G,C][G,D] | [D,D]>[D,C][D,B,] [D,D]3 | %4
 [G,B,]>[G,E][G,D] [G,D]>[G,C][G,B,] | [C,C]>[C,G,][C,G,] [C,G,]3 | %6
 [D,G,][D,B,][D,G,] [D,F,]2 [D,F,] | [G,,G,]6 | [D,F,][D,A,][D,A,] [D,A,]2 z | %9
 [G,,G,][G,,G,][G,,G,] [G,,G,]3 | [D,F,][D,A,][D,A,] [D,A,]2 z | [G,B,][G,B,][G,B,] [G,D]3 | %12
 [G,B,]>[G,E][G,D] [G,D]>[G,C][G,B,] | [C,C]>[C,G,][C,G,] [C,G,]3 | %14
 [D,F,][D,A,][D,A,] [D,A,]2 [D,C] | [G,,B,]6 |] %16
V:4
 x6 | x6 | G,3/2 x9/2 | x6 | x6 | x6 | x6 | x6 | x6 | x6 | x6 | x6 | x6 | x6 | x6 | x6 |] %16

